X: 7796
T: Come On Wee Man
R: reel
M: 4/4
K: Emajor
GccB cdef|fgge f/f/efe|fggf f/f/efg|agfe decB|
GccB cdef|fgge f/f/efg|agfe dcBA|1 G4 z c3:|2 G4 e4||
|:abba d'c'ba|gccB cdeg|1 f=cc^c defa|g3g2c'bc':|2 fedc BAGF|G3G3G2||

